storage/app/icons/phosphoricons/fill/corners-in-fill.svg

<svg xmlns="http://www.w3.org/2000/svg" fill="currentColor" viewBox="0 0 256 256"><path d="M152 96V48a8 8 0 0 1 13.66-5.66l48 48A8 8 0 0 1 208 104h-48a8 8 0 0 1-8-8m-56 56H48a8 8 0 0 0-5.66 13.66l48 48A8 8 0 0 0 104 208v-48a8 8 0 0 0-8-8m3.06-111.39a8 8 0 0 0-8.72 1.73l-48 48A8 8 0 0 0 48 104h48a8 8 0 0 0 8-8V48a8 8 0 0 0-4.94-7.39M208 152h-48a8 8 0 0 0-8 8v48a8 8 0 0 0 13.66 5.66l48-48A8 8 0 0 0 208 152"/></svg>

<svg xmlns="http://www.w3.org/2000/svg" viewBox="0 0 256 256" fill="currentColor"><path d="M152,96V48a8,8,0,0,1,13.66-5.66l48,48A8,8,0,0,1,208,104H160A8,8,0,0,1,152,96ZM96,152H48a8,8,0,0,0-5.66,13.66l48,48A8,8,0,0,0,104,208V160A8,8,0,0,0,96,152ZM99.06,40.61a8,8,0,0,0-8.72,1.73l-48,48A8,8,0,0,0,48,104H96a8,8,0,0,0,8-8V48A8,8,0,0,0,99.06,40.61ZM208,152H160a8,8,0,0,0-8,8v48a8,8,0,0,0,13.66,5.66l48-48A8,8,0,0,0,208,152Z"/></svg>
